X: 1
T: Polska fr\aan Bolln\"as (H\"alsingland)
O: efter Bruce Sagan
N: handwritten MS by Christine Anderson dated 1991
M: 3/4
L: 1/16
K: A
|: e4   B2Bd c2A2- | A2a2 f2d2 c2A2 | e4   B2Bd c2A2- | A2a2 f2d2 c2A2- | A2a2 f2d2 Adfd |
|  d2c2 Acdc Acec  | A2a2 f2d2 Adfd | d2c2 Acdc Acec  | e3e  a2a2 c2c2  | e4   E2G2 A4  :|
K: D
|: A4   E2EG F2D2- | D2d2 B2G2 F2D2 | A4   E2EG F2D2- | D2d2 B2G2 F2D2- | D2d2 B2G2  DGBG |
|  G2F2 DFGF DFAF  | D2d2 B2G2 DGBG | G2F2 DFGF DFAF  | A3A  d2d2 F2F2  | A4   A,2C2 D4  :|
